X: 161313
T: Primrose Glen
T: Gleannt\'an na Samhairc\'in\'i
S: "Ceol Rince na hEireann" 1/05
Z: B.Black
L: 1/8
M: 6/8
R: jig
K: G
B/A/|GEF G2A|BAG ABd|edd gdd|edB dBA|
GEF G2A|BAG ABd|edd gdB|AGF G2 :|
d|g3 efg|afd edB|Add edd|ed^c def|
g3 a3|bag fgf|edc BcB|AGF G2 :|
